src/assets/icons/skills/html.svg

<svg xmlns="http://www.w3.org/2000/svg"  viewBox="0 0 50 50" width="50px" height="50px"><path d="M 45.273438 2.324219 C 45.085938 2.117188 44.816406 2 44.535156 2 L 5.464844 2 C 5.183594 2 4.914063 2.117188 4.726563 2.324219 C 4.535156 2.53125 4.441406 2.808594 4.46875 3.089844 L 7.988281 42.515625 C 8.023438 42.929688 8.3125 43.273438 8.710938 43.390625 L 24.722656 47.960938 C 24.808594 47.988281 24.902344 48 24.996094 48 C 25.089844 48 25.179688 47.988281 25.269531 47.960938 L 41.292969 43.390625 C 41.691406 43.273438 41.976563 42.929688 42.015625 42.515625 L 45.53125 3.089844 C 45.558594 2.808594 45.464844 2.53125 45.273438 2.324219 Z M 36.847656 15.917969 L 18.035156 15.917969 L 18.484375 21.007813 L 36.394531 21.007813 L 35.050781 36.050781 L 24.992188 39.089844 L 24.894531 39.058594 L 14.953125 36.046875 L 14.410156 29.917969 L 19.28125 29.917969 L 19.492188 32.296875 L 25.050781 33.460938 L 30.507813 32.296875 L 31.089844 25.859375 L 14.046875 25.859375 L 12.722656 11.054688 L 37.28125 11.054688 Z"/></svg>

<svg xmlns="http://www.w3.org/2000/svg" width="50" height="50"><path d="M45.273 2.324A.996.996 0 0 0 44.535 2H5.465a.996.996 0 0 0-.996 1.09l3.52 39.426c.034.414.324.757.722.875l16.012 4.57c.086.027.18.039.273.039a.926.926 0 0 0 .274-.04l16.023-4.57c.398-.117.684-.46.723-.874L45.53 3.09a.985.985 0 0 0-.258-.766Zm-8.425 13.594H18.035l.45 5.09h17.91L35.05 36.05 24.992 39.09l-.097-.031-9.942-3.012-.543-6.129h4.871l.211 2.379 5.559 1.164 5.457-1.164.582-6.438H14.047l-1.324-14.804H37.28Z"/></svg>
